src/asset/clock.svg

<svg width="60" height="60" viewBox="0 0 60 60" fill="none" xmlns="http://www.w3.org/2000/svg">
<g filter="url(#filter0_d_26_57)">
<path d="M28.2381 1.02402C28.0521 1.04359 27.4746 1.11207 26.9655 1.16099C23.7353 1.51321 20.1625 2.72641 17.2749 4.44837C13.6042 6.63996 10.6186 9.62403 8.426 13.293C6.713 16.1499 5.57753 19.4764 5.11746 22.979C4.96085 24.1824 4.96085 27.8416 5.11746 29.045C5.92013 35.1404 8.60219 40.2965 13.1441 44.5133C15.65 46.8516 18.7725 48.6714 22.1691 49.7868C24.8512 50.6771 26.9753 51 30 51C32.2318 51 33.2204 50.9119 35.1879 50.5108C41.9323 49.1313 47.9522 44.8068 51.574 38.731C53.287 35.8741 54.4225 32.5476 54.8825 29.045C55.0392 27.8416 55.0392 24.1824 54.8825 22.979C54.4225 19.4764 53.287 16.1499 51.574 13.293C49.3814 9.62403 46.3959 6.63996 42.7251 4.44837C39.8962 2.75576 36.5192 1.60126 33.1323 1.16099C32.2709 1.04359 28.8449 0.955532 28.2381 1.02402ZM33.426 2.67749C33.9937 2.76554 35.0509 2.98079 35.7753 3.1569C44.076 5.22129 50.7616 11.8841 52.8563 20.1906C53.3947 22.3333 53.5317 23.5367 53.5317 26.012C53.5317 28.4873 53.3947 29.6907 52.8563 31.8334C51.1922 38.4473 46.572 44.1219 40.4248 47.1452C38.7314 47.9768 37.4883 48.4366 35.8242 48.8573C33.6805 49.3954 32.4765 49.5324 30 49.5324C27.5235 49.5324 26.3195 49.3954 24.1758 48.8573C15.8947 46.7734 9.22866 40.1106 7.1437 31.8334C6.60532 29.6907 6.46829 28.4873 6.46829 26.012C6.46829 23.5367 6.60532 22.3333 7.1437 20.1906C8.80775 13.5767 13.428 7.90208 19.5752 4.87886C22.3551 3.5189 24.861 2.82425 28.1891 2.4916C29.0211 2.40354 32.4471 2.53073 33.426 2.67749Z" fill="#FFDD87" stroke="#996E00"/>
<path d="M28.1891 5.76939C24.2247 6.14117 20.5344 7.60875 17.4412 10.0449C13.5845 13.0877 10.9416 17.422 10.0313 22.2063C9.17969 26.6384 9.83552 31.1879 11.9107 35.258C12.6742 36.7647 14.074 38.8193 14.6613 39.2987C14.906 39.5041 15.415 39.4063 15.6401 39.103C15.9044 38.7508 15.8261 38.5062 15.1507 37.6452C12.3903 34.0741 10.9221 29.505 11.1472 25.2491C11.3821 21.0713 12.7134 17.4709 15.2192 14.3107C21.6503 6.18031 33.3672 4.791 41.6386 11.1701C42.5 11.8452 42.7447 11.9234 43.0971 11.6593C43.4005 11.4342 43.4984 10.9255 43.2928 10.6809C43.0677 10.3972 41.8931 9.50682 41.0513 8.95893C37.2435 6.50317 32.6233 5.35846 28.1891 5.76939Z" fill="#FFDD87" stroke="#996E00"/>
<path d="M29.5398 9.02705L29.2658 9.26186L29.2364 10.8664C29.1972 12.7058 29.2951 13.1754 29.7356 13.3319C29.902 13.3907 30.0978 13.3907 30.274 13.3319C30.7047 13.1754 30.8026 12.7058 30.7634 10.8664L30.734 9.26186L30.46 9.02705C30.3131 8.89986 30.0978 8.79224 29.9999 8.79224C29.902 8.79224 29.6867 8.89986 29.5398 9.02705Z" fill="#FFDD87" stroke="#996E00"/>
<path d="M21.3176 11.1897C20.9555 11.4441 20.975 11.8061 21.4057 12.5888C21.9539 13.5868 22.1497 13.7922 22.551 13.802C22.9523 13.8118 23.246 13.5183 23.246 13.0976C23.246 12.8334 22.3748 11.268 22.1399 11.1212C21.9539 11.0038 21.5428 11.0332 21.3176 11.1897Z" fill="#FFDD87" stroke="#996E00"/>
<path d="M37.8603 11.1212C37.6253 11.268 36.7542 12.8334 36.7542 13.0976C36.7542 13.5183 37.0478 13.8118 37.4491 13.802C37.8505 13.7922 38.0462 13.5868 38.5944 12.5888C39.0251 11.8061 39.0447 11.4441 38.6825 11.1897C38.4574 11.0332 38.0462 11.0038 37.8603 11.1212Z" fill="#FFDD87" stroke="#996E00"/>
<path d="M44.3991 12.8628C44.0663 13.2835 44.1152 13.4499 44.8983 14.4478C47.5804 17.8819 49.078 22.5684 48.8529 26.7755C48.618 30.9532 47.2867 34.5536 44.7808 37.7138C38.3497 45.8442 26.6328 47.2335 18.3615 40.8545C17.5001 40.1794 17.2554 40.1011 16.903 40.3653C16.5996 40.5903 16.5017 41.0991 16.7072 41.3437C16.9422 41.6274 18.1168 42.5275 18.9488 43.0558C20.6129 44.1321 22.0616 44.8071 23.8627 45.3844C30.2742 47.4194 37.2828 46.1377 42.5588 41.9796C46.4155 38.9368 49.0584 34.6026 49.9688 29.8183C50.8204 25.3862 50.1645 20.8367 48.0894 16.7666C47.3357 15.2794 46.3666 13.8412 45.5248 12.9215C45.143 12.5106 44.6927 12.491 44.3991 12.8628Z" fill="#FFDD87" stroke="#996E00"/>
<path d="M20.3583 15.935C20.0548 16.0524 19.8884 16.3068 19.8884 16.6297C19.8884 16.8938 20.3876 17.432 23.9213 20.9639C27.6018 24.6427 27.9542 25.0242 27.8563 25.2101C27.7976 25.3178 27.7486 25.6895 27.7486 26.032C27.7486 27.3332 28.6883 28.2627 30 28.2627C30.558 28.2627 30.7146 28.2138 31.1746 27.9398C31.5956 27.6854 31.762 27.5093 31.9969 27.0397C32.1633 26.7168 32.3003 26.4429 32.3101 26.4233C32.3101 26.4135 34.1602 26.12 36.4115 25.7678C39.6515 25.2688 40.5423 25.1025 40.6793 24.9655C41.1688 24.4666 40.8751 23.7621 40.1703 23.7621C39.955 23.7621 38.0364 24.0263 35.9025 24.3589C32.2318 24.9264 32.0165 24.946 31.9284 24.7796C31.7717 24.5057 31.3606 24.1535 30.9593 23.948C30.5482 23.7425 29.5302 23.6936 29.1974 23.8697C29.0114 23.9676 28.6296 23.6154 24.9687 19.966C22.7565 17.7548 20.8575 15.935 20.7498 15.9057C20.6421 15.8763 20.466 15.8861 20.3583 15.935ZM30.558 25.4449C31.0572 25.9146 30.7048 26.7951 30.0098 26.7951C29.5497 26.7951 29.2169 26.482 29.2169 26.0222C29.2169 25.3178 30.0392 24.9557 30.558 25.4449Z" fill="#FFDD87" stroke="#996E00"/>
<path d="M15.5424 17.0794C15.141 17.1577 14.8768 17.8034 15.1019 18.1557C15.2487 18.3905 16.8149 19.2612 17.0792 19.2612C17.7546 19.2612 18.0385 18.459 17.5295 18.0285C17.2945 17.823 15.8654 17.0012 15.7969 17.0207C15.7773 17.0305 15.6598 17.0599 15.5424 17.0794Z" fill="#FFDD87" stroke="#996E00"/>
<path d="M43.3613 17.461C42.3825 18.0089 42.2258 18.1654 42.2161 18.5764C42.2063 18.9677 42.5097 19.2612 42.9208 19.2612C43.1851 19.2612 44.7513 18.3905 44.8981 18.1557C45.0254 17.9502 44.9862 17.5295 44.81 17.324C44.487 16.9522 44.2031 16.9816 43.3613 17.461Z" fill="#FFDD87" stroke="#996E00"/>
<path d="M13.3889 25.298C13.1246 25.3469 12.7722 25.7676 12.7722 26.022C12.7722 26.1198 12.8799 26.3253 13.0071 26.472L13.2421 26.746L14.8474 26.7753C16.6876 26.8145 17.1575 26.7166 17.3141 26.2764C17.4609 25.8654 17.2847 25.4937 16.8834 25.3567C16.5604 25.2491 13.8881 25.2001 13.3889 25.298Z" fill="#FFDD87" stroke="#996E00"/>
<path d="M43.1167 25.3567C42.7154 25.4937 42.5392 25.8654 42.686 26.2764C42.8427 26.7166 43.3125 26.8145 45.1528 26.7753L46.7581 26.746L46.993 26.472C47.2867 26.1296 47.2867 25.8948 46.993 25.5524L46.7581 25.2784L45.1038 25.2588C43.9977 25.2393 43.3517 25.2686 43.1167 25.3567Z" fill="#FFDD87" stroke="#996E00"/>
<path d="M16.0024 33.2521C15.5423 33.526 15.141 33.8 15.1018 33.8685C14.9844 34.0543 15.0137 34.4653 15.1703 34.6903C15.4248 35.0523 15.787 35.0327 16.5701 34.6022C17.5685 34.0543 17.7741 33.8587 17.7839 33.4575C17.7937 33.0564 17.5 32.7629 17.0791 32.7629C16.9323 32.7629 16.4526 32.9879 16.0024 33.2521Z" fill="#FFDD87" stroke="#996E00"/>
<path d="M42.4315 32.939C42.2651 33.0662 42.2063 33.2227 42.2161 33.4575C42.2259 33.8587 42.4315 34.0543 43.4299 34.6022C44.213 35.0327 44.5752 35.0523 44.8297 34.6903C44.9863 34.4653 45.0157 34.0543 44.8982 33.8685C44.7514 33.6336 43.1852 32.7629 42.9209 32.7629C42.7643 32.7629 42.5489 32.8411 42.4315 32.939Z" fill="#FFDD87" stroke="#996E00"/>
<path d="M22.3845 38.2221C21.9734 38.2808 20.975 39.9539 21.0631 40.4235C21.161 40.9029 21.8168 41.1573 22.1888 40.854C22.4433 40.6583 23.2459 39.1907 23.2459 38.9265C23.2459 38.4374 22.8838 38.1438 22.3845 38.2221Z" fill="#FFDD87" stroke="#996E00"/>
<path d="M37.1653 38.2518C36.9206 38.3398 36.7542 38.6333 36.7542 38.9464C36.7542 39.2008 37.5666 40.6684 37.8113 40.8543C38.0169 41.0206 38.428 41.0108 38.6825 40.8347C39.0349 40.5901 39.0251 40.2183 38.6433 39.5139C37.9875 38.3105 37.6841 38.0561 37.1653 38.2518Z" fill="#FFDD87" stroke="#996E00"/>
<path d="M29.5205 38.819C29.2562 39.0831 29.1974 39.6408 29.2366 41.3236C29.266 42.7618 29.266 42.7618 29.54 42.9967C29.8826 43.2902 30.1176 43.2902 30.4602 42.9967C30.7342 42.7618 30.7342 42.7618 30.7636 41.3236C30.8223 39.132 30.6755 38.6331 30.0001 38.6331C29.8435 38.6331 29.6183 38.7211 29.5205 38.819Z" fill="#FFDD87" stroke="#996E00"/>
</g>
<defs>
<filter id="filter0_d_26_57" x="0.5" y="0.5" width="59" height="59" filterUnits="userSpaceOnUse" color-interpolation-filters="sRGB">
<feFlood flood-opacity="0" result="BackgroundImageFix"/>
<feColorMatrix in="SourceAlpha" type="matrix" values="0 0 0 0 0 0 0 0 0 0 0 0 0 0 0 0 0 0 127 0" result="hardAlpha"/>
<feOffset dy="4"/>
<feGaussianBlur stdDeviation="2"/>
<feComposite in2="hardAlpha" operator="out"/>
<feColorMatrix type="matrix" values="0 0 0 0 0 0 0 0 0 0 0 0 0 0 0 0 0 0 0.25 0"/>
<feBlend mode="normal" in2="BackgroundImageFix" result="effect1_dropShadow_26_57"/>
<feBlend mode="normal" in="SourceGraphic" in2="effect1_dropShadow_26_57" result="shape"/>
</filter>
</defs>
</svg>

<svg xmlns="http://www.w3.org/2000/svg" width="60" height="60" fill="none"><g fill="#FFDD87" stroke="#996E00" filter="url(#a)"><path d="M28.238 1.024c-.186.02-.763.088-1.273.137-3.23.352-6.802 1.565-9.69 3.287a25.359 25.359 0 0 0-8.849 8.845c-1.713 2.857-2.848 6.183-3.309 9.686-.156 1.203-.156 4.863 0 6.066.803 6.095 3.485 11.252 8.027 15.468 2.506 2.339 5.629 4.158 9.025 5.274C24.851 50.677 26.975 51 30 51c2.232 0 3.22-.088 5.188-.49 6.744-1.379 12.764-5.703 16.386-11.779 1.713-2.857 2.849-6.183 3.309-9.686.156-1.203.156-4.863 0-6.066-.46-3.503-1.596-6.83-3.309-9.686a25.358 25.358 0 0 0-8.849-8.845c-2.829-1.692-6.206-2.847-9.593-3.287-.861-.117-4.287-.205-4.894-.137Zm5.188 1.653c.568.089 1.625.304 2.35.48 8.3 2.064 14.986 8.727 17.08 17.034.539 2.142.676 3.346.676 5.821 0 2.475-.137 3.679-.676 5.821-1.664 6.614-6.284 12.289-12.431 15.312-1.694.832-2.937 1.292-4.6 1.712-2.145.538-3.349.675-5.825.675-2.477 0-3.68-.137-5.824-.675-8.281-2.084-14.947-8.746-17.032-17.024-.539-2.142-.676-3.346-.676-5.821 0-2.475.137-3.679.676-5.821 1.664-6.614 6.284-12.289 12.431-15.312 2.78-1.36 5.286-2.055 8.614-2.387.832-.088 4.258.039 5.237.185Z"/><path d="M28.19 5.77c-3.965.371-7.656 1.839-10.749 4.275-3.856 3.043-6.5 7.377-7.41 12.161-.851 4.432-.195 8.982 1.88 13.052.763 1.507 2.163 3.561 2.75 4.04.245.206.754.108.98-.195.263-.352.185-.597-.49-1.458-2.76-3.57-4.229-8.14-4.004-12.396.235-4.178 1.566-7.778 4.072-10.938 6.431-8.13 18.148-9.52 26.42-3.14.861.674 1.106.752 1.458.488.303-.225.401-.734.196-.978-.225-.284-1.4-1.174-2.242-1.722-3.808-2.456-8.428-3.6-12.862-3.19Z"/><path d="m29.54 9.027-.274.235-.03 1.604c-.039 1.84.06 2.31.5 2.466a.844.844 0 0 0 .538 0c.43-.157.529-.626.49-2.466l-.03-1.604-.274-.235c-.147-.127-.362-.235-.46-.235-.098 0-.313.108-.46.235ZM21.318 11.19c-.363.254-.343.616.088 1.399.548.998.744 1.203 1.145 1.213.401.01.695-.284.695-.704 0-.265-.871-1.83-1.106-1.977-.186-.117-.597-.088-.822.069ZM37.86 11.121c-.235.147-1.106 1.712-1.106 1.977 0 .42.294.714.695.704.401-.01.597-.215 1.145-1.213.431-.783.45-1.145.088-1.4-.225-.156-.636-.185-.822-.068ZM44.4 12.863c-.334.42-.285.587.498 1.585 2.682 3.434 4.18 8.12 3.955 12.328-.235 4.177-1.566 7.778-4.072 10.938-6.431 8.13-18.148 9.52-26.42 3.14-.86-.675-1.106-.753-1.458-.489-.303.225-.401.734-.196.979.235.283 1.41 1.184 2.242 1.712 1.664 1.076 3.113 1.751 4.914 2.328a20.3 20.3 0 0 0 18.696-3.404c3.857-3.043 6.5-7.377 7.41-12.162.851-4.432.195-8.981-1.88-13.051-.753-1.488-1.722-2.926-2.564-3.845-.382-.411-.832-.431-1.126-.06Z"/><path d="M20.358 15.935a.708.708 0 0 0-.47.695c0 .264.5.802 4.033 4.334 3.68 3.679 4.033 4.06 3.935 4.246-.058.108-.107.48-.107.822 0 1.301.94 2.23 2.251 2.23.558 0 .715-.048 1.175-.322.42-.255.587-.43.822-.9.166-.323.303-.597.313-.617 0-.01 1.85-.303 4.101-.655 3.24-.5 4.131-.666 4.268-.803.49-.498.196-1.203-.509-1.203-.215 0-2.134.264-4.267.597-3.671.567-3.886.587-3.975.42-.156-.273-.567-.625-.969-.831-.41-.206-1.429-.254-1.762-.078-.186.098-.567-.255-4.228-3.904-2.213-2.211-4.111-4.031-4.22-4.06a.673.673 0 0 0-.39.029Zm10.2 9.51c.5.47.147 1.35-.548 1.35-.46 0-.793-.313-.793-.773a.79.79 0 0 1 1.341-.577ZM15.542 17.08c-.401.078-.665.723-.44 1.076.147.235 1.713 1.105 1.977 1.105.676 0 .96-.802.45-1.232-.235-.206-1.664-1.028-1.732-1.008-.02.01-.137.039-.255.058ZM43.361 17.461c-.978.548-1.135.704-1.145 1.115-.01.392.294.685.705.685.264 0 1.83-.87 1.977-1.105.127-.206.088-.627-.088-.832-.323-.372-.607-.342-1.449.137ZM13.389 25.298c-.264.049-.617.47-.617.724 0 .098.108.303.235.45l.235.274 1.605.03c1.84.038 2.31-.06 2.467-.5.147-.41-.03-.782-.43-.92-.324-.107-2.996-.156-3.495-.058ZM43.117 25.357c-.402.137-.578.508-.431.92.157.44.627.537 2.467.498l1.605-.029.235-.274c.294-.342.294-.577 0-.92l-.235-.274-1.654-.02c-1.106-.019-1.752.01-1.987.099ZM16.002 33.252c-.46.274-.861.548-.9.616-.118.186-.088.597.068.822.255.362.617.343 1.4-.088.998-.548 1.204-.743 1.214-1.144.01-.402-.284-.695-.705-.695-.147 0-.626.225-1.077.49ZM42.431 32.939c-.166.127-.225.284-.215.519.01.4.215.596 1.214 1.144.783.43 1.145.45 1.4.088.156-.225.186-.636.068-.822-.147-.234-1.713-1.105-1.977-1.105a.875.875 0 0 0-.49.176ZM22.384 38.222c-.41.059-1.409 1.732-1.32 2.201.097.48.753.734 1.125.431.254-.196 1.057-1.663 1.057-1.928 0-.489-.362-.782-.861-.704ZM37.165 38.252c-.244.088-.41.381-.41.694 0 .255.812 1.722 1.056 1.908.206.167.617.157.871-.02.353-.244.343-.616-.039-1.32-.656-1.204-.959-1.458-1.478-1.262ZM29.52 38.819c-.264.264-.323.822-.283 2.505.029 1.438.029 1.438.303 1.673.343.293.578.293.92 0 .274-.235.274-.235.304-1.673.058-2.192-.088-2.69-.764-2.69a.804.804 0 0 0-.48.185Z"/></g><defs><filter id="a" width="59" height="59" x=".5" y=".5" color-interpolation-filters="sRGB" filterUnits="userSpaceOnUse"><feFlood flood-opacity="0" result="BackgroundImageFix"/><feColorMatrix in="SourceAlpha" result="hardAlpha" values="0 0 0 0 0 0 0 0 0 0 0 0 0 0 0 0 0 0 127 0"/><feOffset dy="4"/><feGaussianBlur stdDeviation="2"/><feComposite in2="hardAlpha" operator="out"/><feColorMatrix values="0 0 0 0 0 0 0 0 0 0 0 0 0 0 0 0 0 0 0.25 0"/><feBlend in2="BackgroundImageFix" result="effect1_dropShadow_26_57"/><feBlend in="SourceGraphic" in2="effect1_dropShadow_26_57" result="shape"/></filter></defs></svg>
